-----BEGIN PGP PUBLIC KEY BLOCK-----

mQINBGogDAUBEACZNm2f1P+sLaGjjuBYF5vrxyZI//zG2JEJNVc5hkZ3nOVlPEbs
Wp5kNF0DfpxWUOB80EWNuwRMfhNoNnpqKKfzFULh1tziMPEXUdnvTn80xQnmIftc
CnzvvQOysXbgZa+w5zMzeYOvBj73DVRvKfMzz4dHIkLaYrHoKyr9pi+Iz5Pg5a1i
HOqbVWenn0z0Ns/HdafU7dWgLVG5tKNKZF+rGCSZRs20hMXYUTOxkmQPT9nAPY2I
sDDuI+bXCUA/9L5PcO8ZFN32Sm78ZxlswyEizeKrX9MiBxTEK9ZoyIbpd1FkJXvG
FP+P5xUTzF8AHJzDg/XlH5fweVPOuMYCyYICRb+pJsDo9uSh2ppbzNO2TABXG33f
cTPUfq1zdGwaHm/nr0XK7zmvXy5Aj/1GBUIvAOQG28c5QMFeziHmrzqPJGwBk7sY
AYuddgGZehbrOSBf8RE5q/BmcKvWz71ey8zVkjL2xgIMbD0YMIw1F6si3n1/l4RQ
M7uZhiwDdKUZKG9o79mrTTMygFxmwlNU8UemQc1ddC9dVXD0O3DsB2HV2HeDPf+e
lfhhVuof8YYmivwlfGCap+vgBpQEVUjkHBJmGL1pqEmUu+qwM0n1Z1KpUseInyN3
3GRlBfsjmVhSHNgBP1nX7PeEb0tDXyEZQsXTKNI1d9f7FaTsNS/4w/T6cQARAQAB
tExSZXRybyBHYW1lIExhdW5jaGVyIEFQVCBSZXBvc2l0b3J5IDxzemFib2dlcmdl
bHkyNkB1c2Vycy5ub3JlcGx5LmdpdGh1Yi5jb20+iQJUBBMBCgA+FiEEHMqP6Vcl
HUltsWP59o5eKBpv3xEFAmogDAUCGwMFCQPCZwAFCwkIBwIGFQoJCAsCBBYCAwEC
HgECF4AACgkQ9o5eKBpv3xHrrw//dpfp66V5bDJSHNGYzROa2+aWFGL6dRaf/3sd
cjQgeBWWp3Fno3TxGmi59FfoWeXEvib7TwMjJwmlJCMj7ZgqknLJgVmR+fuRS3HN
rdcGf9ELWl03i45UfkgIzzylbDXtSMctTajtq/UzfuxWGpUcareOCBOrRxKwoFxQ
KNhYw4sQqk6/liVxaSuwHxomRR9VEU93u0/Hzc0wcMgXpmz5FqQl68qzDideWcZO
aAewFsB1L0jcu7F3XKBuYBV1mCjFafEaaNQKeZSFy2wPof+eogQwvqjvb4IklPIH
gRkTKPMdTRCLF2DE6ra6ErHRKM5a2oi7un/aty3c2wKNnACj2urJW8cLBCXhzEBF
kNOTiEgII6ObJTNiDXnFbx1+OFstdHjVt9fceCPTMRSMOu8vfCMjdTyYqWuwaBIi
isV1vPue58vMbpaTCeqpW7lo17K7k+MCqBlbBkJAg6rfhsr+4eebh0WRg7Kl8RlV
02UrcjlS4X4kJREQDiI+dTrsvHJrm9fiKiI6/151SGs5BEs9Le8uMvgRXPKaflT3
pRQ1m+JCJKqS1Z4ynisKM4uSteCi+T+u9qEmAnAn8EmoHzGXbT3VJkZIYJWHRL/O
ATISNvbw6rhLCBkrPR4sVURcCMLpr+eGUErvF0Rhvg73zBeKxepcEIqzifoctKwQ
gjwBo4W5Ag0EaiAMBQEQAN9hXti3LMMMKjH4ckB+/5sQ8P+pcyfElxMVbdlhCw7p
Yfb3u2edzPOPjdMKWu+nHfz5Dr6kKiM5740YisZJ5ggfYdU3z0BbK32VUj23l4zV
zIHo9+oRzhYznardPUxJojqW85rW7BDa6wJdXTCrZ/FUUf1izoxPBTWal3cG3f/G
MZmCE7bkPwNqrfv2QDAHvQoMf/3RQxEuTURlo2xa0EGYFObkJbvEJq1sXpA6PYbY
d6RyCT8JLyjN0zRqugmISuXiPuIXrV9HDlH7DNiY5Sde4/MnkqZ0yLcR+7IpJqhF
qDh4NmLM5Xo/FAp5o6drgh1B5t34mxpK5X5XzxfGebLUp3Xbt2RGPojJ1kojguO6
D7ybEzH7hmx1/bYwW3nmdZYRMZ7xoSiWsVvJXAREdLp1D+CJM5RYxT0Bv1gMTXJ5
eAujtT+59daftpHE2o3nT9/g2ufQldkrfu42t5qIOC8sY7EA7uEAw3vf/t4B7w33
Hn/0bQosGKp3NnnyJGeR+RyVv5NwEipgrzN8oryIZ4Oguqbmkd9KatF2WGo6tKJP
m80P5V209cQqZcxlaIv41LWLjzkGj2G3NwcMXo6oyosMeJRw245DZQK6fZR7lLrA
/cF0X5mxknV28kBzaFa7Fvp/7bfDv2/ZCRKcMduAdpRkxEvY7CnT0hPgvNWu7oQd
ABEBAAGJAjwEGAEKACYWIQQcyo/pVyUdSW2xY/n2jl4oGm/fEQUCaiAMBQIbDAUJ
A8JnAAAKCRD2jl4oGm/fETYYEACY5DHdhd9hxa0IhIA3meAns/1+KqVLhpC19iOz
s8pD5mfRAadx2krzfTPOWf2poIB/BkKnlz4ZFt767fjCMHk+0nN/9wy/rKLUOjxG
O13ssg2c6rzKf3MVrCkh5YTYJtyZPrdWyuNp0eQ7w/qPiql9JAGkykoJu3yhjXkb
9KgY5gRHpfgMr1/ycwmscJU0ArApbMEUBDv+l2tgMKeMDmiGT75+3byu3XBfOUeU
dtXhhW9ozGfmF4EEwvUWPCjghGnbp0A0Ni16utRaVTV1NGD4I8fakGVnbgX1+Mt/
HOt7yM36FwGHYod5sV2Ey079UVePLtDzzzDKP2tVIDZoCSk+dxG6yUUqRmdcXpZa
N/qy0uvO+L846Y4CdHvxoOnO2UwSXzZR/q9udtLi1yqABj/BTAVWdLQIJGNXiG9b
KmWA+ZhHSacEp+KSUaXID2NTE5SuRiI6OoyUsVWmCPg0fNyBCa3rONMyY0Bpqji0
8aLbJxWAyZl1U1didVKjUP1PKootl1zad+FLHGATEqiJVO1kcN9CMdASA7qg/L+m
C/aDtZOGNBLjr+/r/uqS6HQkbWMJ3XrMVQMuv5kSupUvXH6CtsXky0Rl5XjFdoRR
NZXP2jHw4rupHoOzx7/CTCtYE5cYwG9WZe1cObu4tsaErsxb2Lfvz35PUsnmMYG8
GcTPlg==
=iL7H
-----END PGP PUBLIC KEY BLOCK-----
